mobile/24/svg/private-mode-24.svg

<svg width="24" height="24" fill="none" xmlns="http://www.w3.org/2000/svg"><path fill-rule="evenodd" clip-rule="evenodd" d="M19.589 6h-2.593c-1.408 0-2.74.64-3.616 1.737a1.767 1.767 0 0 1-2.76 0A4.627 4.627 0 0 0 7.004 6H4.411A2.406 2.406 0 0 0 2 8.4v3.989a5.992 5.992 0 0 0 2.685 4.993l.324.215A2.42 2.42 0 0 0 6.347 18h.679c.506 0 .999-.158 1.41-.453l2.252-1.616c.3-.215.66-.331 1.03-.331h.563c.37 0 .73.116 1.03.331l2.252 1.616c.412.295.905.453 1.411.453h.679c.476 0 .941-.14 1.337-.403l.324-.215A5.993 5.993 0 0 0 22 12.389V8.4C22 7.075 20.92 6 19.589 6zM9.29 12.258c-.533.6-1.36.986-2.29.986-.93 0-1.757-.386-2.29-.986a.858.858 0 0 1 0-1.125c.533-.6 1.36-.986 2.29-.986.93 0 1.757.386 2.29.986.28.315.28.81 0 1.125zm7.71.986c-.93 0-1.757-.386-2.29-.986a.858.858 0 0 1 0-1.125c.533-.6 1.36-.986 2.29-.986.93 0 1.757.386 2.29.986.28.315.28.81 0 1.125-.533.6-1.36.986-2.29.986z" fill="#000"/></svg>

<svg width="24" height="24" viewBox="0 0 24 24" fill="none" xmlns="http://www.w3.org/2000/svg">
<path fill-rule="evenodd" clip-rule="evenodd" d="M19.589 6H16.996C15.588 6 14.256 6.64 13.38 7.737C13.045 8.156 12.537 8.4 12 8.4C11.463 8.4 10.955 8.156 10.62 7.737C9.744 6.64 8.413 6 7.004 6H4.411C3.08 6 2 7.075 2 8.4V12.389C2 14.396 3.008 16.27 4.685 17.382L5.009 17.597C5.405 17.86 5.871 18 6.347 18H7.026C7.532 18 8.025 17.842 8.436 17.547L10.688 15.931C10.988 15.716 11.348 15.6 11.718 15.6H12.281C12.651 15.6 13.011 15.716 13.311 15.931L15.563 17.547C15.975 17.842 16.468 18 16.974 18H17.653C18.129 18 18.594 17.86 18.99 17.597L19.314 17.382C20.992 16.269 22 14.395 22 12.389V8.4C22 7.075 20.92 6 19.589 6ZM9.29 12.258C8.757 12.858 7.93 13.244 7 13.244C6.07 13.244 5.243 12.858 4.71 12.258C4.43 11.943 4.43 11.448 4.71 11.133C5.243 10.533 6.07 10.147 7 10.147C7.93 10.147 8.757 10.533 9.29 11.133C9.57 11.448 9.57 11.943 9.29 12.258ZM17 13.244C16.07 13.244 15.243 12.858 14.71 12.258C14.43 11.943 14.43 11.448 14.71 11.133C15.243 10.533 16.07 10.147 17 10.147C17.93 10.147 18.757 10.533 19.29 11.133C19.57 11.448 19.57 11.943 19.29 12.258C18.757 12.858 17.93 13.244 17 13.244Z" fill="black"/>
</svg>
